ui/StatusQ/src/assets/img/icons/status-logo-light.svg

<svg fill="none" height="98" viewBox="0 0 256 98" width="256" xmlns="http://www.w3.org/2000/svg"><path clip-rule="evenodd" d="m49 0c-27.062 0-49 21.9384-49 49 0 27.062 21.938 49 49 49s49-21.938 49-49c0-27.0616-21.938-49-49-49z" fill="#4360df" fill-rule="evenodd"/><path clip-rule="evenodd" d="m50.7043 46.9554c2.4633.2568 4.9266.5134 7.9552.3445 8.2054-.458 13.1758-4.6739 12.8232-10.9758-.3596-6.4118-6.9722-10.362-13.5885-9.9926-10.7824.6014-18.7114 10.0779-19.6044 20.9091 1.4644-.3434 3.0056-.5485 4.4591-.6295 3.0287-.1689 5.492.0877 7.9554.3443zm-21.1378 14.0173c.3403 5.8775 6.605 9.4986 12.8733 9.1599 10.2148-.5514 17.7267-9.2382 18.5724-19.1668-1.3872.3148-2.8472.503-4.2243.5772-2.8692.1548-5.2031-.0803-7.537-.3157-2.3336-.2352-4.6675-.4704-7.5366-.3155-7.7732.4197-12.4824 4.2841-12.1478 10.0609z" fill="#fff" fill-rule="evenodd"/><g fill="#000"><path d="m117.204 57.2625h7.091c0 1.2024.338 2.0655 1.016 2.5898.677.524 1.547.786 2.61.786.878 0 1.594-.1618 2.148-.4854.57-.3392.855-.8864.855-1.6418 0-.4471-.124-.8093-.37-1.0867-.231-.2929-.593-.5472-1.085-.7631-.493-.2312-1.124-.4624-1.895-.6937-.769-.2312-1.693-.5241-2.771-.8785-.97-.3083-1.887-.6244-2.749-.9482-.847-.339-1.594-.7552-2.24-1.2485-.647-.4932-1.155-1.0944-1.525-1.8035-.354-.7091-.531-1.5878-.531-2.6359 0-1.2025.239-2.2429.716-3.1216s1.147-1.6032 2.01-2.1735c.862-.5704 1.893-.9943 3.095-1.2718 1.201-.2929 2.525-.4393 3.972-.4393 1.771 0 3.296.2004 4.574.6012s2.325.948 3.141 1.6416c.816.6939 1.417 1.5108 1.802 2.4511.4.9402.6 1.9499.6 3.0291h-7.137c0-.9405-.246-1.6727-.739-2.1967-.477-.5241-1.209-.7861-2.194-.7861-.755 0-1.402.1696-1.941.5086-.538.3238-.808.8169-.808 1.4799 0 .4469.123.8092.37 1.0867.261.262.639.5009 1.131.7168.493.2157 1.101.4394 1.825.6705.724.2159 1.555.4779 2.495.7861 1.016.2776 1.963.5858 2.841.925.877.3392 1.647.7554 2.31 1.2486.677.4779 1.208 1.0867 1.593 1.8266.4.7246.601 1.6494.601 2.7747 0 1.3257-.277 2.4587-.832 3.399-.554.925-1.301 1.6802-2.24 2.266-.924.5858-2.002 1.0019-3.234 1.2485-1.232.2621-2.525.3933-3.88.3933-3.373 0-5.99-.7014-7.854-2.1043-1.848-1.418-2.771-3.4683-2.771-6.1505z"/><path d="m139.816 47.4588v-5.3876h3.581v-6.7748h7.206v6.7748h5.197v5.3876h-5.197v8.1621c0 .8479.077 1.5261.231 2.0347.154.4934.37.8864.647 1.1793.292.2775.639.4625 1.039.5549.416.077.878.1156 1.386.1156.308 0 .701-.0077 1.178-.0231.477-.0307.893-.077 1.247-.1388v5.5495c-.538.0924-1.216.1773-2.032.2543-.801.0771-1.748.1156-2.841.1156-.847 0-1.74-.0616-2.68-.1849-.939-.1233-1.809-.4471-2.61-.9711-.8-.5243-1.462-1.3258-1.986-2.4048-.524-1.0945-.785-2.5897-.785-4.4858v-9.7575z"/><path clip-rule="evenodd" d="m159.218 48.7076c-.539 1.4643-.808 3.0521-.808 4.7632 0 1.711.269 3.2988.808 4.7631.554 1.4645 1.317 2.7285 2.287 3.7921.985 1.0637 2.133 1.9038 3.441 2.5203 1.325.6167 2.741.925 4.25.925 1.756 0 3.265-.3699 4.528-1.1099 1.262-.7399 2.178-1.634 2.749-2.6822v3.214h7.229v-22.8217h-7.229v3.2603c-.633-1.1099-1.579-2.0272-2.842-2.7517-1.247-.7245-2.725-1.0867-4.435-1.0867-1.524 0-2.941.3083-4.25.9248-1.308.6167-2.456 1.4568-3.441 2.5205-.97 1.0481-1.733 2.3044-2.287 3.7689zm6.768 7.0292c-.262-.7246-.393-1.4799-.393-2.266s.131-1.5261.393-2.2197c.277-.6937.646-1.3103 1.108-1.8498.478-.5395 1.047-.9634 1.709-1.2718.663-.3083 1.402-.4625 2.218-.4625.832 0 1.578.1542 2.24.4625.663.3084 1.225.7323 1.687 1.2718.477.5395.847 1.1561 1.108 1.8498.277.6936.417 1.4336.417 2.2197 0 .8015-.14 1.5569-.417 2.266-.261.7091-.631 1.3257-1.108 1.8498-.462.5086-1.032.9248-1.71 1.2486-.662.3083-1.401.4625-2.217.4625s-1.555-.1542-2.218-.4625c-.662-.3238-1.231-.74-1.709-1.2486-.462-.5241-.831-1.1407-1.108-1.8498z" fill-rule="evenodd"/><path d="m187.583 47.4588v-5.3876h3.579v-6.7748h7.208v6.7748h5.197v5.3876h-5.197v8.1621c0 .8479.077 1.5261.23 2.0347.154.4934.369.8864.648 1.1793.293.2775.638.4625 1.039.5549.415.077.878.1156 1.386.1156.308 0 .701-.0077 1.177-.0231.478-.0307.894-.077 1.248-.1388v5.5495c-.538.0924-1.216.1773-2.033.2543-.801.0771-1.748.1156-2.842.1156-.846 0-1.739-.0616-2.678-.1849-.94-.1233-1.81-.4471-2.611-.9711-.801-.5243-1.463-1.3258-1.985-2.4048-.524-1.0945-.787-2.5897-.787-4.4858v-9.7575z"/><path d="m207.679 55.6212v-13.5497h7.183v11.6999c0 1.6339.293 2.9674.878 4.0003.585 1.0172 1.631 1.526 3.142 1.526 1.508 0 2.617-.5165 3.325-1.5492.723-1.0483 1.086-2.4587 1.086-4.2314v-11.4456h7.229v22.8218h-7.229v-3.2603c-.632 1.2024-1.594 2.1427-2.887 2.8209-1.295.6782-2.842 1.0174-4.643 1.0174-1.572 0-2.865-.2466-3.881-.7399-1-.4932-1.817-1.1176-2.447-1.873-.726-.8785-1.202-1.8959-1.433-3.0521-.216-1.1561-.323-2.5512-.323-4.1851z"/><path d="m235.188 57.2625h7.092c0 1.2024.338 2.0655 1.016 2.5898.676.524 1.547.786 2.609.786.877 0 1.594-.1618 2.149-.4854.57-.3392.854-.8864.854-1.6418 0-.4471-.123-.8093-.37-1.0867-.23-.2929-.592-.5472-1.085-.7631-.492-.2312-1.124-.4624-1.894-.6937-.77-.2312-1.694-.5241-2.771-.8785-.971-.3083-1.887-.6244-2.749-.9482-.848-.339-1.595-.7552-2.241-1.2485-.646-.4932-1.155-1.0944-1.524-1.8035-.354-.7091-.531-1.5878-.531-2.6359 0-1.2025.238-2.2429.715-3.1216.478-.8787 1.147-1.6032 2.009-2.1735.864-.5704 1.894-.9943 3.096-1.2718 1.2-.2929 2.525-.4393 3.974-.4393 1.769 0 3.293.2004 4.572.6012 1.278.4008 2.325.948 3.142 1.6416.816.6939 1.415 1.5108 1.801 2.4511.401.9402.601 1.9499.601 3.0291h-7.138c0-.9405-.245-1.6727-.739-2.1967-.477-.5241-1.209-.7861-2.194-.7861-.755 0-1.401.1696-1.941.5086-.538.3238-.808.8169-.808 1.4799 0 .4469.123.8092.37 1.0867.261.262.639.5009 1.132.7168.492.2157 1.1.4394 1.824.6705.725.2159 1.555.4779 2.494.7861 1.017.2776 1.964.5858 2.842.925s1.647.7554 2.309 1.2486c.678.4779 1.209 1.0867 1.595 1.8266.399.7246.601 1.6494.601 2.7747 0 1.3257-.279 2.4587-.833 3.399-.553.925-1.301 1.6802-2.24 2.266-.924.5858-2.001 1.0019-3.233 1.2485-1.233.2621-2.526.3933-3.881.3933-3.372 0-5.99-.7014-7.854-2.1043-1.846-1.418-2.771-3.4683-2.771-6.1505z"/></g></svg>

<svg width="256" height="98" viewBox="0 0 256 98" fill="none" xmlns="http://www.w3.org/2000/svg">
<path fill-rule="evenodd" clip-rule="evenodd" d="M49 0C21.938 0 0 21.9384 0 49C0 76.062 21.938 98 49 98C76.062 98 98 76.062 98 49C98 21.9384 76.062 0 49 0Z" fill="#4360DF"/>
<path fill-rule="evenodd" clip-rule="evenodd" d="M50.7043 46.9554C53.1676 47.2122 55.6309 47.4688 58.6595 47.2999C66.8649 46.8419 71.8353 42.626 71.4827 36.3241C71.1231 29.9123 64.5105 25.9621 57.8942 26.3315C47.1118 26.9329 39.1828 36.4094 38.2898 47.2406C39.7542 46.8972 41.2954 46.6921 42.7489 46.6111C45.7776 46.4422 48.2409 46.6988 50.7043 46.9554ZM29.5665 60.9727C29.9068 66.8502 36.1715 70.4713 42.4398 70.1326C52.6546 69.5812 60.1665 60.8944 61.0122 50.9658C59.625 51.2806 58.165 51.4688 56.7879 51.543C53.9187 51.6978 51.5848 51.4627 49.2509 51.2273C46.9173 50.9921 44.5834 50.7569 41.7143 50.9118C33.9411 51.3315 29.2319 55.1959 29.5665 60.9727Z" fill="white"/>
<path d="M117.204 57.2625H124.295C124.295 58.4649 124.633 59.328 125.311 59.8523C125.988 60.3763 126.858 60.6383 127.921 60.6383C128.799 60.6383 129.515 60.4765 130.069 60.1529C130.639 59.8137 130.924 59.2665 130.924 58.5111C130.924 58.064 130.8 57.7018 130.554 57.4244C130.323 57.1315 129.961 56.8772 129.469 56.6613C128.976 56.4301 128.345 56.1989 127.574 55.9676C126.805 55.7364 125.881 55.4435 124.803 55.0891C123.833 54.7808 122.916 54.4647 122.054 54.1409C121.207 53.8019 120.46 53.3857 119.814 52.8924C119.167 52.3992 118.659 51.798 118.289 51.0889C117.935 50.3798 117.758 49.5011 117.758 48.453C117.758 47.2505 117.997 46.2101 118.474 45.3314C118.951 44.4527 119.621 43.7282 120.484 43.1579C121.346 42.5875 122.377 42.1636 123.579 41.8861C124.78 41.5932 126.104 41.4468 127.551 41.4468C129.322 41.4468 130.847 41.6472 132.125 42.048C133.403 42.4488 134.45 42.996 135.266 43.6896C136.082 44.3835 136.683 45.2004 137.068 46.1407C137.468 47.0809 137.668 48.0906 137.668 49.1698H130.531C130.531 48.2293 130.285 47.4971 129.792 46.9731C129.315 46.449 128.583 46.187 127.598 46.187C126.843 46.187 126.196 46.3566 125.657 46.6956C125.119 47.0194 124.849 47.5125 124.849 48.1755C124.849 48.6224 124.972 48.9847 125.219 49.2622C125.48 49.5242 125.858 49.7631 126.35 49.979C126.843 50.1947 127.451 50.4184 128.175 50.6495C128.899 50.8654 129.73 51.1274 130.67 51.4356C131.686 51.7132 132.633 52.0214 133.511 52.3606C134.388 52.6998 135.158 53.116 135.821 53.6092C136.498 54.0871 137.029 54.6959 137.414 55.4358C137.814 56.1604 138.015 57.0852 138.015 58.2105C138.015 59.5362 137.738 60.6692 137.183 61.6095C136.629 62.5345 135.882 63.2897 134.943 63.8755C134.019 64.4613 132.941 64.8774 131.709 65.124C130.477 65.3861 129.184 65.5173 127.829 65.5173C124.456 65.5173 121.839 64.8159 119.975 63.413C118.127 61.995 117.204 59.9447 117.204 57.2625Z" fill="black"/>
<path d="M139.816 47.4588V42.0712H143.397V35.2964H150.603V42.0712H155.8V47.4588H150.603V55.6209C150.603 56.4688 150.68 57.147 150.834 57.6556C150.988 58.149 151.204 58.542 151.481 58.8349C151.773 59.1124 152.12 59.2974 152.52 59.3898C152.936 59.4668 153.398 59.5054 153.906 59.5054C154.214 59.5054 154.607 59.4977 155.084 59.4823C155.561 59.4516 155.977 59.4053 156.331 59.3435V64.893C155.793 64.9854 155.115 65.0703 154.299 65.1473C153.498 65.2244 152.551 65.2629 151.458 65.2629C150.611 65.2629 149.718 65.2013 148.778 65.078C147.839 64.9547 146.969 64.6309 146.168 64.1069C145.368 63.5826 144.706 62.7811 144.182 61.7021C143.658 60.6076 143.397 59.1124 143.397 57.2163V47.4588H139.816Z" fill="black"/>
<path fill-rule="evenodd" clip-rule="evenodd" d="M159.218 48.7076C158.679 50.1719 158.41 51.7597 158.41 53.4708C158.41 55.1818 158.679 56.7696 159.218 58.2339C159.772 59.6984 160.535 60.9624 161.505 62.026C162.49 63.0897 163.638 63.9298 164.946 64.5463C166.271 65.163 167.687 65.4713 169.196 65.4713C170.952 65.4713 172.461 65.1014 173.724 64.3614C174.986 63.6215 175.902 62.7274 176.473 61.6792V64.8932H183.702V42.0715H176.473V45.3318C175.84 44.2219 174.894 43.3046 173.631 42.5801C172.384 41.8556 170.906 41.4934 169.196 41.4934C167.672 41.4934 166.255 41.8017 164.946 42.4182C163.638 43.0349 162.49 43.875 161.505 44.9387C160.535 45.9868 159.772 47.2431 159.218 48.7076ZM165.986 55.7368C165.724 55.0122 165.593 54.2569 165.593 53.4708C165.593 52.6847 165.724 51.9447 165.986 51.2511C166.263 50.5574 166.632 49.9408 167.094 49.4013C167.572 48.8618 168.141 48.4379 168.803 48.1295C169.466 47.8212 170.205 47.667 171.021 47.667C171.853 47.667 172.599 47.8212 173.261 48.1295C173.924 48.4379 174.486 48.8618 174.948 49.4013C175.425 49.9408 175.795 50.5574 176.056 51.2511C176.333 51.9447 176.473 52.6847 176.473 53.4708C176.473 54.2723 176.333 55.0277 176.056 55.7368C175.795 56.4459 175.425 57.0625 174.948 57.5866C174.486 58.0952 173.916 58.5114 173.238 58.8352C172.576 59.1435 171.837 59.2977 171.021 59.2977C170.205 59.2977 169.466 59.1435 168.803 58.8352C168.141 58.5114 167.572 58.0952 167.094 57.5866C166.632 57.0625 166.263 56.4459 165.986 55.7368Z" fill="black"/>
<path d="M187.583 47.4588V42.0712H191.162V35.2964H198.37V42.0712H203.567V47.4588H198.37V55.6209C198.37 56.4688 198.447 57.147 198.6 57.6556C198.754 58.149 198.969 58.542 199.248 58.8349C199.541 59.1124 199.886 59.2974 200.287 59.3898C200.702 59.4668 201.165 59.5054 201.673 59.5054C201.981 59.5054 202.374 59.4977 202.85 59.4823C203.328 59.4516 203.744 59.4053 204.098 59.3435V64.893C203.56 64.9854 202.882 65.0703 202.065 65.1473C201.264 65.2244 200.317 65.2629 199.223 65.2629C198.377 65.2629 197.484 65.2013 196.545 65.078C195.605 64.9547 194.735 64.6309 193.934 64.1069C193.133 63.5826 192.471 62.7811 191.949 61.7021C191.425 60.6076 191.162 59.1124 191.162 57.2163V47.4588H187.583Z" fill="black"/>
<path d="M207.679 55.6212V42.0715H214.862V53.7714C214.862 55.4053 215.155 56.7388 215.74 57.7717C216.325 58.7889 217.371 59.2977 218.882 59.2977C220.39 59.2977 221.499 58.7812 222.207 57.7485C222.93 56.7002 223.293 55.2898 223.293 53.5171V42.0715H230.522V64.8933H223.293V61.633C222.661 62.8354 221.699 63.7757 220.406 64.4539C219.111 65.1321 217.564 65.4713 215.763 65.4713C214.191 65.4713 212.898 65.2247 211.882 64.7314C210.882 64.2382 210.065 63.6138 209.435 62.8584C208.709 61.9799 208.233 60.9625 208.002 59.8063C207.786 58.6502 207.679 57.2551 207.679 55.6212Z" fill="black"/>
<path d="M235.188 57.2625H242.28C242.28 58.4649 242.618 59.328 243.296 59.8523C243.972 60.3763 244.843 60.6383 245.905 60.6383C246.782 60.6383 247.499 60.4765 248.054 60.1529C248.624 59.8137 248.908 59.2665 248.908 58.5111C248.908 58.064 248.785 57.7018 248.538 57.4244C248.308 57.1315 247.946 56.8772 247.453 56.6613C246.961 56.4301 246.329 56.1989 245.559 55.9676C244.789 55.7364 243.865 55.4435 242.788 55.0891C241.817 54.7808 240.901 54.4647 240.039 54.1409C239.191 53.8019 238.444 53.3857 237.798 52.8924C237.152 52.3992 236.643 51.798 236.274 51.0889C235.92 50.3798 235.743 49.5011 235.743 48.453C235.743 47.2505 235.981 46.2101 236.458 45.3314C236.936 44.4527 237.605 43.7282 238.467 43.1579C239.331 42.5875 240.361 42.1636 241.563 41.8861C242.763 41.5932 244.088 41.4468 245.537 41.4468C247.306 41.4468 248.83 41.6472 250.109 42.048C251.387 42.4488 252.434 42.996 253.251 43.6896C254.067 44.3835 254.666 45.2004 255.052 46.1407C255.453 47.0809 255.653 48.0906 255.653 49.1698H248.515C248.515 48.2293 248.27 47.4971 247.776 46.9731C247.299 46.449 246.567 46.187 245.582 46.187C244.827 46.187 244.181 46.3566 243.641 46.6956C243.103 47.0194 242.833 47.5125 242.833 48.1755C242.833 48.6224 242.956 48.9847 243.203 49.2622C243.464 49.5242 243.842 49.7631 244.335 49.979C244.827 50.1947 245.435 50.4184 246.159 50.6495C246.884 50.8654 247.714 51.1274 248.653 51.4356C249.67 51.7132 250.617 52.0214 251.495 52.3606C252.373 52.6998 253.142 53.116 253.804 53.6092C254.482 54.0871 255.013 54.6959 255.399 55.4358C255.798 56.1604 256 57.0852 256 58.2105C256 59.5362 255.721 60.6692 255.167 61.6095C254.614 62.5345 253.866 63.2897 252.927 63.8755C252.003 64.4613 250.926 64.8774 249.694 65.124C248.461 65.3861 247.168 65.5173 245.813 65.5173C242.441 65.5173 239.823 64.8159 237.959 63.413C236.113 61.995 235.188 59.9447 235.188 57.2625Z" fill="black"/>
</svg>
